public/sheesh/vuesaxbulktrendup2.svg

<svg fill="none" height="32" viewBox="0 0 32 32" width="32" xmlns="http://www.w3.org/2000/svg" xmlns:xlink="http://www.w3.org/1999/xlink"><linearGradient id="a"><stop offset="0" stop-color="#34c796"/><stop offset="1" stop-color="#0b7a55"/></linearGradient><linearGradient id="b" gradientUnits="userSpaceOnUse" x1="15.9937" x2="15.9937" xlink:href="#a" y1="2.66699" y2="29.3337"/><linearGradient id="c" gradientUnits="userSpaceOnUse" x1="16.0189" x2="16.0189" xlink:href="#a" y1="11.9736" y2="20.0403"/><path d="m21.587 2.66699h-11.1733c-4.85337 0-7.74671 2.89334-7.74671 7.74671v11.16c0 4.8666 2.89334 7.76 7.74671 7.76h11.16c4.8533 0 7.7466-2.8934 7.7466-7.7467v-11.1733c.0134-4.85337-2.88-7.74671-7.7333-7.74671z" fill="url(#b)" opacity=".25"/><path d="m22.4406 12.547c-.0934-.2267-.28-.4134-.5067-.5067-.1067-.04-.2267-.0667-.3467-.0667h-2.48c-.52 0-.9333.4134-.9333.9334s.4133.9333.9333.9333h.24l-2.8133 2.8133-1.36-2.0266c-.16-.2267-.4-.3867-.68-.4134-.2933-.0266-.5467.0667-.7467.2667l-3.97329 3.9733c-.36.36-.36.9467 0 1.32.18666.1867.41329.2667.65329.2667s.48-.0933.6534-.2667l3.1733-3.1733 1.36 2.0267c.16.2266.4.3866.68.4133.2933.0267.5467-.0667.7467-.2667l3.6266-3.6266v.24c0 .52.4134.9333.9334.9333s.9333-.4133.9333-.9333v-2.4934c-.0267-.12-.04-.24-.0933-.3466z" fill="url(#c)"/></svg>

<svg width="32" height="32" viewBox="0 0 32 32" fill="none" xmlns="http://www.w3.org/2000/svg">
<path opacity="0.25" d="M21.587 2.66699H10.4137C5.56033 2.66699 2.66699 5.56033 2.66699 10.4137V21.5737C2.66699 26.4403 5.56033 29.3337 10.4137 29.3337H21.5737C26.427 29.3337 29.3203 26.4403 29.3203 21.587V10.4137C29.3337 5.56033 26.4403 2.66699 21.587 2.66699Z" fill="url(#paint0_linear_298_13334)"/>
<path d="M22.4406 12.547C22.3472 12.3203 22.1606 12.1336 21.9339 12.0403C21.8272 12.0003 21.7072 11.9736 21.5872 11.9736H19.1072C18.5872 11.9736 18.1739 12.387 18.1739 12.907C18.1739 13.427 18.5872 13.8403 19.1072 13.8403H19.3472L16.5339 16.6536L15.1739 14.627C15.0139 14.4003 14.7739 14.2403 14.4939 14.2136C14.2006 14.187 13.9472 14.2803 13.7472 14.4803L9.77391 18.4536C9.41391 18.8136 9.41391 19.4003 9.77391 19.7736C9.96057 19.9603 10.1872 20.0403 10.4272 20.0403C10.6672 20.0403 10.9072 19.947 11.0806 19.7736L14.2539 16.6003L15.6139 18.627C15.7739 18.8536 16.0139 19.0136 16.2939 19.0403C16.5872 19.067 16.8406 18.9736 17.0406 18.7736L20.6672 15.147V15.387C20.6672 15.907 21.0806 16.3203 21.6006 16.3203C22.1206 16.3203 22.5339 15.907 22.5339 15.387V12.8936C22.5072 12.7736 22.4939 12.6536 22.4406 12.547Z" fill="url(#paint1_linear_298_13334)"/>
<defs>
<linearGradient id="paint0_linear_298_13334" x1="15.9937" y1="2.66699" x2="15.9937" y2="29.3337" gradientUnits="userSpaceOnUse">
<stop stop-color="#34C796"/>
<stop offset="1" stop-color="#0B7A55"/>
</linearGradient>
<linearGradient id="paint1_linear_298_13334" x1="16.0189" y1="11.9736" x2="16.0189" y2="20.0403" gradientUnits="userSpaceOnUse">
<stop stop-color="#34C796"/>
<stop offset="1" stop-color="#0B7A55"/>
</linearGradient>
</defs>
</svg>
